X:1
T:Monora, CMD
T:Monora, CMD
T:William Batchelder Bradbury, 1863
T:Public Domain Courtesy of the Cyber Hymnal™
C:William Batchelder Bradbury, 1863
Z:Public Domain
Z:Courtesy of the Cyber Hymnal™
%%score ( 1 2 ) ( 3 4 )
L:1/8
Q:1/4=110
M:4/4
K:Ab
V:1 treble 
V:2 treble 
V:3 bass 
V:4 bass 
V:1
|: [CE]2 | [CE]3 C [CE]2 [EA]2 | [EA]3 [CE] [CA]2 [Ec]2 | [DB]2 [CA]2 [Ec]2 [DB]2 | [CA]6 :| %5
 [EA]2 | [EB]3 [EA] [EG]2 [EB]2 | [Ec]3 [DB] [CA]2 [Ec]2 | [Ed]2 [Ec]2 [EB]2 [EA][Ac] | e6 [CE]2 | %10
 [CE]3 C [CE]2 [EA]2 | [EA]3 [CE] [CA]2 [Ec]2 | [DB]2 [CA]2 [Ec]2 [DB]2 | [CA]6 |] %14
V:2
|: x2 | x3 C x4 | x8 | x8 | x6 :| x2 | x8 | x8 | x8 | A4 G2 x2 | x8 | x8 | x8 | x6 |] %14
V:3
|: [A,,A,]2 | [A,,A,]3 [A,,E,] [A,,A,]2 [A,,C]2 | [A,,C]3 [A,,A,] [A,,A,]2 A,2 | %3
 [E,G,]2 [F,A,]2 [E,A,]2 [E,G,]2 | [A,,A,]6 :| [A,C]2 | [E,D]3 [E,C] [E,B,]2 [E,D]2 | %7
 [A,C]3 [A,D] [A,E]2 A,2 | [G,B,]2 [A,C]2 [G,D]2 [A,C]2 | C4 B,2 [A,,A,]2 | %10
 [A,,A,]3 [A,,E,] [A,,A,]2 [A,,C]2 | [A,,C]3 [A,,A,] [A,,A,]2 A,2 | %12
 [E,G,]2 [F,A,]2 [E,A,]2 [E,G,]2 | [A,,A,]6 |] %14
V:4
|: x2 | x8 | x6 A,2 | x8 | x6 :| x2 | x8 | x8 | x8 | E,6 x2 | x8 | x8 | x8 | x6 |] %14

